services/digitalization_icon.svg

<?xml version="1.0" encoding="UTF-8"?>
<svg fill="none" viewBox="0 0 250 251" xmlns="http://www.w3.org/2000/svg">
    <g clip-path="url(#a)">
        <path d="m125.45 35.401c9.665 0 17.5-7.8351 17.5-17.5 0-9.665-7.835-17.5-17.5-17.5s-17.5 7.835-17.5 17.5c0 9.6649 7.835 17.5 17.5 17.5zm0-7c5.799 0 10.5-4.7011 10.5-10.5 0-5.799-4.701-10.5-10.5-10.5s-10.5 4.701-10.5 10.5c0 5.7989 4.701 10.5 10.5 10.5z" clip-rule="evenodd" fill="#47B947" fill-rule="evenodd"/>
        <rect transform="matrix(1 0 0 -1 120.45 118.4)" width="10" height="76.901" fill="#000"/>
        <path d="m17.5 52.401c9.665 0 17.5-7.8351 17.5-17.5 0-9.665-7.835-17.5-17.5-17.5-9.665 0-17.5 7.835-17.5 17.5 0 9.6649 7.835 17.5 17.5 17.5zm0-7c5.799 0 10.5-4.7011 10.5-10.5 0-5.799-4.701-10.5-10.5-10.5s-10.5 4.701-10.5 10.5c0 5.7989 4.701 10.5 10.5 10.5z" clip-rule="evenodd" fill="#47B947" fill-rule="evenodd"/>
        <path d="m28.594 124.73c9.6649 0 17.5-7.835 17.5-17.5s-7.8351-17.5-17.5-17.5c-9.665 0-17.5 7.8351-17.5 17.5s7.835 17.5 17.5 17.5zm0-7c5.7989 0 10.5-4.701 10.5-10.5s-4.7011-10.5-10.5-10.5c-5.799 0-10.5 4.7011-10.5 10.5s4.701 10.5 10.5 10.5z" clip-rule="evenodd" fill="#47B947" fill-rule="evenodd"/>
        <path d="m41.452 34.901h42.424l8.9787 8.9241 8.9785 8.9241v80.094" stroke="#000" stroke-width="10"/>
        <path d="m46.608 89.923 20.459-20.459v49.369l23.017 23.017" stroke="#000" stroke-linejoin="bevel" stroke-width="10"/>
        <path d="m232.5 52.401c-9.665 0-17.5-7.8351-17.5-17.5 0-9.665 7.835-17.5 17.5-17.5s17.5 7.835 17.5 17.5c0 9.6649-7.835 17.5-17.5 17.5zm0-7c-5.799 0-10.5-4.7011-10.5-10.5 0-5.799 4.701-10.5 10.5-10.5s10.5 4.701 10.5 10.5c0 5.7989-4.701 10.5-10.5 10.5z" clip-rule="evenodd" fill="#47B947" fill-rule="evenodd"/>
        <path d="m221.41 124.73c-9.665 0-17.5-7.835-17.5-17.5s7.835-17.5 17.5-17.5 17.5 7.8351 17.5 17.5-7.835 17.5-17.5 17.5zm0-7c-5.799 0-10.5-4.701-10.5-10.5s4.701-10.5 10.5-10.5 10.5 4.7011 10.5 10.5-4.701 10.5-10.5 10.5z" clip-rule="evenodd" fill="#47B947" fill-rule="evenodd"/>
        <path d="m208.55 34.901h-42.425l-8.978 8.9241-8.979 8.9241v80.094" stroke="#000" stroke-width="10"/>
        <path d="m203.91 89.923-20.459-20.459v49.369l-23.017 23.017" stroke="#000" stroke-linejoin="bevel" stroke-width="10"/>
        <path d="m117.12 111.33h15.75v12.138c4.248 0.569 8.352 1.591 12.263 3.017l5.642-10.738 13.942 7.326-5.648 10.748c3.433 2.445 6.591 5.249 9.42 8.358l9.998-6.894 8.942 12.965-9.989 6.888c1.889 3.717 3.395 7.661 4.464 11.781l12.044-1.457 1.892 15.636-12.058 1.459c-0.058 4.295-0.577 8.479-1.51 12.504l11.343 4.307-5.591 14.724-11.344-4.307c-2.019 3.712-4.426 7.183-7.167 10.357l8.051 9.093-11.793 10.441-8.047-9.09c-3.472 2.332-7.208 4.303-11.151 5.86l2.899 11.778-15.293 3.765-2.902-11.789c-2.064 0.219-4.16 0.332-6.282 0.332-2.133 0-4.239-0.114-6.313-0.335l-2.908 11.787-15.291-3.773 2.905-11.777c-3.9426-1.558-7.6767-3.531-11.148-5.865l-8.0519 9.085-11.787-10.446 8.0552-9.089c-2.7391-3.176-5.1444-6.648-7.1612-10.361l-11.346 4.301-5.5826-14.727 11.345-4.301c-0.9305-4.026-1.4475-8.21-1.5039-12.505l-12.057-1.465 1.9003-15.635 12.042 1.464c1.0719-4.12 2.5794-8.064 4.4703-11.779l-9.9847-6.893 8.948-12.962 9.9947 6.9c2.831-3.107 5.9907-5.91 9.4241-8.353l-5.6417-10.751 13.946-7.318 5.6364 10.74c3.902-1.42 7.996-2.439 12.234-3.006v-12.138zm7.875 106.29c19.816 0 35.881-16.064 35.881-35.881 0-19.816-16.065-35.88-35.881-35.88-19.817 0-35.881 16.064-35.881 35.88 0 19.817 16.064 35.881 35.881 35.881z" clip-rule="evenodd" fill="#47B947" fill-rule="evenodd"/>
    </g>
    <defs>
        <clipPath id="a">
            <rect transform="translate(0 .40076)" width="250" height="250" fill="#fff"/>
        </clipPath>
    </defs>
</svg>

<svg width="250" height="251" viewBox="0 0 250 251" fill="none" xmlns="http://www.w3.org/2000/svg">
<g clip-path="url(#clip0)">
<path fill-rule="evenodd" clip-rule="evenodd" d="M125.446 35.4008C135.111 35.4008 142.946 27.5657 142.946 17.9008C142.946 8.23577 135.111 0.400757 125.446 0.400757C115.781 0.400757 107.946 8.23577 107.946 17.9008C107.946 27.5657 115.781 35.4008 125.446 35.4008ZM125.446 28.4008C131.245 28.4008 135.946 23.6997 135.946 17.9008C135.946 12.1018 131.245 7.40076 125.446 7.40076C119.647 7.40076 114.946 12.1018 114.946 17.9008C114.946 23.6997 119.647 28.4008 125.446 28.4008Z" fill="#47B947"/>
<rect width="10" height="76.9007" transform="matrix(1 0 0 -1 120.446 118.401)" fill="black"/>
<path fill-rule="evenodd" clip-rule="evenodd" d="M17.5 52.4008C27.165 52.4008 35 44.5657 35 34.9008C35 25.2358 27.165 17.4008 17.5 17.4008C7.83502 17.4008 0 25.2358 0 34.9008C0 44.5657 7.83502 52.4008 17.5 52.4008ZM17.5 45.4008C23.299 45.4008 28 40.6997 28 34.9008C28 29.1018 23.299 24.4008 17.5 24.4008C11.701 24.4008 7 29.1018 7 34.9008C7 40.6997 11.701 45.4008 17.5 45.4008Z" fill="#47B947"/>
<path fill-rule="evenodd" clip-rule="evenodd" d="M28.5938 124.732C38.2587 124.732 46.0938 116.897 46.0938 107.232C46.0938 97.567 38.2587 89.7319 28.5938 89.7319C18.9288 89.7319 11.0938 97.567 11.0938 107.232C11.0938 116.897 18.9288 124.732 28.5938 124.732ZM28.5938 117.732C34.3927 117.732 39.0938 113.031 39.0938 107.232C39.0938 101.433 34.3927 96.7319 28.5938 96.7319C22.7948 96.7319 18.0938 101.433 18.0938 107.232C18.0938 113.031 22.7948 117.732 28.5938 117.732Z" fill="#47B947"/>
<path d="M41.4524 34.9008H83.8768L92.8555 43.8249L101.834 52.749V132.843" stroke="black" stroke-width="10"/>
<path d="M46.6077 89.923L67.067 69.4636V118.833L90.0838 141.85" stroke="black" stroke-width="10" stroke-linejoin="bevel"/>
<path fill-rule="evenodd" clip-rule="evenodd" d="M232.5 52.4008C222.835 52.4008 215 44.5657 215 34.9008C215 25.2358 222.835 17.4008 232.5 17.4008C242.165 17.4008 250 25.2358 250 34.9008C250 44.5657 242.165 52.4008 232.5 52.4008ZM232.5 45.4008C226.701 45.4008 222 40.6997 222 34.9008C222 29.1018 226.701 24.4008 232.5 24.4008C238.299 24.4008 243 29.1018 243 34.9008C243 40.6997 238.299 45.4008 232.5 45.4008Z" fill="#47B947"/>
<path fill-rule="evenodd" clip-rule="evenodd" d="M221.406 124.732C211.741 124.732 203.906 116.897 203.906 107.232C203.906 97.567 211.741 89.7319 221.406 89.7319C231.071 89.7319 238.906 97.567 238.906 107.232C238.906 116.897 231.071 124.732 221.406 124.732ZM221.406 117.732C215.607 117.732 210.906 113.031 210.906 107.232C210.906 101.433 215.607 96.7319 221.406 96.7319C227.205 96.7319 231.906 101.433 231.906 107.232C231.906 113.031 227.205 117.732 221.406 117.732Z" fill="#47B947"/>
<path d="M208.548 34.9008H166.123L157.145 43.8249L148.166 52.749V132.843" stroke="black" stroke-width="10"/>
<path d="M203.906 89.923L183.447 69.4636V118.833L160.43 141.85" stroke="black" stroke-width="10" stroke-linejoin="bevel"/>
<path fill-rule="evenodd" clip-rule="evenodd" d="M117.125 111.333H132.875V123.471C137.123 124.04 141.227 125.062 145.138 126.488L150.78 115.75L164.722 123.076L159.074 133.824C162.507 136.269 165.665 139.073 168.494 142.182L178.492 135.288L187.434 148.253L177.445 155.141C179.334 158.858 180.84 162.802 181.909 166.922L193.953 165.465L195.845 181.101L183.787 182.56C183.729 186.855 183.21 191.039 182.277 195.064L193.62 199.371L188.029 214.095L176.685 209.788C174.666 213.5 172.259 216.971 169.518 220.145L177.569 229.238L165.776 239.679L157.729 230.589C154.257 232.921 150.521 234.892 146.578 236.449L149.477 248.227L134.184 251.992L131.282 240.203C129.218 240.422 127.122 240.535 125 240.535C122.867 240.535 120.761 240.421 118.687 240.2L115.779 251.987L100.488 248.214L103.393 236.437C99.4504 234.879 95.7163 232.906 92.2447 230.572L84.1928 239.657L72.406 229.211L80.4612 220.122C77.7221 216.946 75.3168 213.474 73.3 209.761L61.9536 214.062L56.371 199.335L67.7157 195.034C66.7852 191.008 66.2682 186.824 66.2118 182.529L54.1551 181.064L56.0554 165.429L68.0979 166.893C69.1698 162.773 70.6773 158.829 72.5682 155.114L62.5835 148.221L71.5315 135.259L81.5262 142.159C84.3572 139.052 87.5169 136.249 90.9503 133.806L85.3086 123.055L99.2546 115.737L104.891 126.477C108.793 125.057 112.887 124.038 117.125 123.471V111.333ZM125 217.622C144.816 217.622 160.881 201.558 160.881 181.741C160.881 161.925 144.816 145.861 125 145.861C105.183 145.861 89.1189 161.925 89.1189 181.741C89.1189 201.558 105.183 217.622 125 217.622Z" fill="#47B947"/>
</g>
<defs>
<clipPath id="clip0">
<rect width="250" height="250" fill="white" transform="translate(0 0.400757)"/>
</clipPath>
</defs>
</svg>
